CN4T1/185/aimg/mantequilla.svg

<svg clip-rule="evenodd" fill-rule="evenodd" stroke-linejoin="round" stroke-miterlimit="2" viewBox="0 0 609 326" xmlns="http://www.w3.org/2000/svg"><g fill-rule="nonzero"><path d="m0 3.17c-.274.085-.45.103-.582.187-3.846 2.46-7.754 4.832-11.493 7.446-1.231.862-2.151 2.27-2.98 3.576-1.051 1.658-.817 2.985.623 4.32.63.584 1.431 1.106 2.244 1.345 3.812 1.117 7.654 2.127 11.486 3.171 7.334 1.999 14.533 4.398 22.086 5.714 5.981 1.042 11.256.411 16.395-2.659 3.488-2.084 7.137-3.9 10.607-6.009 6.038-3.67 12.169-7.225 17.94-11.284 7.418-5.216 14.868-10.322 23.033-14.315 2.403-1.175 2.52-3.91.267-5.369-.528-.342-1.107-.637-1.702-.843-3.957-1.367-7.918-2.726-11.894-4.042-1.428-.473-2.899-.82-4.362-1.228-.481 3.128-.388 3.288 2.41 4.162.484.151.982.26 1.465.412 1.573.494 3.169.931 4.704 1.523 1.027.396 1.841 1.13 1.649 2.407-.04.261-.388.477-.594.714-.226-.204-.462-.398-.677-.612-.5-.496-.903-1.207-1.503-1.463-1.276-.546-2.649-.867-3.988-1.261-1.024-.301-2.054-.574-3.377-.941.758 1.618.242 2.246-1.034 3.073-8.846 5.728-17.569 11.646-26.361 17.458-2.075 1.373-4.239 2.62-6.407 3.843-1.915 1.08-3.908 2.021-5.841 3.069-3.716 2.015-7.403 4.085-11.135 6.071-.498.265-1.225.344-1.781.219-5.771-1.303-11.531-2.661-17.29-4.013-1.609-.378-1.928-.778-1.953-2.463-.022-1.461-.005-2.923-.005-4.671-2.09 1.298-3.959 2.367-5.707 3.607-.478.34-.586 1.198-.869 1.816-.143.311-.297.616-.447.923-.306-.232-.812-.42-.875-.706-.111-.501-.125-1.173.133-1.573.489-.76 1.1-1.523 1.837-2.026 1.641-1.12 3.412-2.048 5.081-3.129.397-.257.832-.794.856-1.225.1-1.685.041-3.38.041-5.224m1.181 6.359.144.012c0 1.693.121 3.399-.036 5.077-.137 1.455.495 1.831 1.767 2.11 4.952 1.086 9.886 2.256 14.806 3.478 1.345.334 2.57.38 3.789-.315 3.639-2.072 7.244-4.207 10.932-6.189 4.69-2.52 9.595-4.64 13.719-8.142 1.767-1.501 3.755-2.755 5.705-4.024 5.889-3.834 11.8-7.634 17.726-11.408.706-.45.955-.834.789-1.711-.242-1.278-.267-2.603-.322-3.91-.088-2.113-.186-4.229-.157-6.342.015-1.117-.531-1.519-1.479-1.649-2.386-.33-4.775-.649-7.163-.969-3.227-.432-6.492-.689-9.666-1.368-1.444-.309-2.503-.058-3.673.577-2.231 1.212-4.436 2.488-6.741 3.543-7.001 3.204-14.104 6.188-21.052 9.499-5.956 2.839-11.76 5.997-17.605 9.064-.387.204-.747.825-.781 1.276-.279 3.794-.479 7.594-.702 11.391m25.828 21.477c-6.476-.881-13.619-1.9-20.539-4.173-3.89-1.279-7.9-2.192-11.844-3.309-2.643-.749-5.313-1.439-7.885-2.388-3.737-1.379-4.853-4.996-2.514-8.218 1.101-1.517 2.423-3 3.953-4.055 3.546-2.445 7.261-4.649 10.95-6.881.767-.465 1.266-.909 1.208-1.85-.026-.417.171-.856.108-1.26-.334-2.156.878-3.002 2.66-3.866 5.9-2.859 11.627-6.079 17.545-8.898 6.72-3.201 13.593-6.077 20.359-9.181 2.419-1.11 4.714-2.49 7.081-3.716 1.219-.632 2.319-1.165 3.873-.406 1.261.616 2.892.471 4.36.664 3.941.52 7.883 1.028 11.822 1.562 2.584.35 3.195 1.1 3.334 3.715.179 3.363-.465 2.694 2.961 3.789 4.511 1.442 9.009 2.924 13.499 4.429.835.281 1.65.684 2.399 1.15 1.611 1.005 2.432 2.523 2.195 4.403-.221 1.752-1.308 2.873-2.937 3.677-2.836 1.4-5.606 2.947-8.335 4.547-2.882 1.691-5.741 3.433-8.51 5.302-5.086 3.434-9.946 7.224-15.176 10.414-7.149 4.36-14.525 8.357-21.869 12.388-2.447 1.343-5.107 2.279-8.698 2.161" fill="#231f20" transform="matrix(5.55556 0 0 5.55556 94.421474184 153.15954756)"/><path d="m0 31.532c.014.001.029.002.043.003 0 .763-.074 1.535.027 2.283.064.469.393.903.602 1.353.252-.425.701-.838.724-1.275.193-3.508.326-7.019.414-10.531.01-.4-.371-.81-.57-1.214-.242.382-.666.749-.699 1.149-.227 2.74-.371 5.487-.541 8.232m.047-10.778c.411-.397.678-.654.944-.911-.336-.267-.643-.709-1.013-.771-2.16-.363-4.353-.536-6.497-.968-2.016-.405-3.978-1.074-5.978-1.572-.34-.084-.75.109-1.127.174.202.354.382.723.616 1.055.083.117.292.168.454.204 4.184.93 8.369 1.854 12.601 2.789m4.584-1.389c.603-.215 1.096-.345 1.55-.559 10.285-4.844 20.771-9.291 30.45-15.334.48-.3 1.168-1.179 1.058-1.356-.546-.886-1.191-.113-1.696.192-10.088 6.09-20.813 10.89-31.544 15.682-.272.122-.423.517-.63.784.278.202.555.404.812.591m-21.763 8.702c.223-3.798.423-7.598.702-11.391.034-.452.394-1.073.781-1.276 5.845-3.067 11.649-6.225 17.605-9.064 6.948-3.311 14.051-6.296 21.052-9.499 2.305-1.055 4.51-2.331 6.741-3.543 1.17-.636 2.229-.886 3.673-.577 3.174.679 6.439.936 9.666 1.368 2.388.32 4.777.638 7.163.968.948.131 1.494.533 1.479 1.65-.029 2.113.069 4.229.157 6.342.055 1.307.08 2.632.322 3.909.167.877-.083 1.262-.789 1.711-5.926 3.775-11.837 7.575-17.726 11.409-1.95 1.269-3.938 2.523-5.705 4.023-4.124 3.502-9.029 5.623-13.719 8.143-3.688 1.982-7.293 4.117-10.932 6.189-1.219.695-2.444.648-3.789.314-4.92-1.221-9.854-2.392-14.806-3.478-1.272-.278-1.904-.654-1.767-2.109.157-1.679.036-3.384.036-5.077-.048-.004-.096-.008-.144-.012" fill="#ffde67" transform="matrix(5.55556 0 0 5.55556 196.15822224 50.17057628)"/><path d="m0 24.312c.073.055.123.122.163.192.046.014.094.025.14.039.005-.003.005-.008.009-.011 4.31-3.189 9.208-5.374 14.07-7.571 5.654-2.553 11.092-5.342 16.456-8.462 6.459-3.758 13.677-6.162 21.079-7.251-2.706-.327-5.421-.603-8.075-1.171-1.444-.308-2.503-.058-3.673.578-2.231 1.212-4.437 2.488-6.741 3.542-7.001 3.204-14.104 6.188-21.052 9.5-5.65 2.693-11.715 6.141-17.256 9.059 1.546.434 3.578.565 4.88 1.556" fill="#fffbc8" transform="matrix(5.55556 0 0 5.55556 135.890396248 8.09276484)"/><path d="m0-20.447c-.242-1.278-.267-2.603-.321-3.91-.088-2.112-.188-4.228-.158-6.341.009-.699-.201-1.117-.59-1.365-4.731 2.888-9.364 5.964-14.483 8.114-.009.006-.018.014-.026.02-9.679 6.043-20.165 10.489-30.45 15.334-.454.213-.947.344-1.55.559-.015-.011-.032-.024-.048-.035-1.313.945-2.24 2.185-2.887 3.618.066.14.117.279.114.417-.088 3.512-.221 7.023-.414 10.531-.023.436-.472.85-.724 1.274-.038-.082-.083-.163-.127-.245.105 1.371.238 2.73.363 4.039.834.053 1.634-.081 2.43-.535 3.639-2.073 7.244-4.207 10.932-6.189 4.69-2.521 9.595-4.641 13.719-8.143 1.767-1.5 3.755-2.754 5.705-4.024 5.889-3.834 11.8-7.634 17.727-11.408.706-.45.954-.834.788-1.711" fill="#e9bb5d" transform="matrix(5.55556 0 0 5.55556 485.01956444 202.4040314)"/><path d="m0 31.041c.981-.502 1.875-.894 2.703-1.395 7.894-4.768 15.75-9.6 23.673-14.318 4.58-2.726 9.271-5.262 13.886-7.93.372-.214.534-.792.794-1.201-.488.012-1.047-.125-1.45.066-1.258.598-2.476 1.289-3.679 1.998-9.403 5.54-18.799 11.093-28.197 16.642-2.62 1.547-5.248 3.081-7.851 4.656-.27.163-.515.547-.548.853-.019.175.411.4.669.629m-30.642-18.926c0 1.844.059 3.538-.04 5.224-.025.431-.46.968-.857 1.225-1.669 1.081-3.44 2.009-5.081 3.129-.736.503-1.347 1.265-1.837 2.026-.257.4-.244 1.072-.133 1.573.064.286.569.474.876.706.149-.308.304-.612.446-.923.284-.618.392-1.476.87-1.816 1.747-1.24 3.617-2.309 5.707-3.607 0 1.748-.018 3.21.004 4.671.026 1.684.345 2.085 1.953 2.463 5.76 1.352 11.519 2.71 17.291 4.012.555.126 1.282.047 1.781-.218 3.731-1.986 7.418-4.056 11.135-6.071 1.933-1.049 3.925-1.989 5.84-3.07 2.168-1.223 4.332-2.469 6.408-3.842 8.791-5.812 17.514-11.73 26.36-17.458 1.276-.827 1.792-1.455 1.034-3.074 1.323.368 2.354.641 3.377.942 1.339.394 2.712.715 3.988 1.261.6.256 1.003.966 1.503 1.463.215.214.452.408.677.611.206-.237.555-.452.594-.713.192-1.277-.621-2.011-1.649-2.407-1.535-.592-3.13-1.029-4.704-1.523-.483-.152-.981-.261-1.464-.412-2.798-.874-2.892-1.034-2.411-4.162 1.463.408 2.934.754 4.363 1.228 3.975 1.316 7.936 2.674 11.893 4.042.595.206 1.174.5 1.702.843 2.253 1.458 2.136 4.194-.266 5.368-8.165 3.994-15.615 9.1-23.033 14.316-5.772 4.058-11.903 7.614-17.94 11.284-3.471 2.109-7.12 3.924-10.607 6.008-5.139 3.071-10.415 3.702-16.396 2.66-7.553-1.316-14.751-3.715-22.086-5.714-3.832-1.044-7.674-2.055-11.485-3.171-.814-.239-1.615-.761-2.244-1.345-1.44-1.335-1.675-2.663-.623-4.32.828-1.306 1.749-2.715 2.98-3.576 3.738-2.614 7.646-4.986 11.492-7.446.133-.085.308-.102.582-.187" fill="#a0c5e8" transform="matrix(5.55556 0 0 5.55556 264.65272148 103.47061892)"/><g fill="#231f20"><path d="m0 18.135c-.257-.187-.534-.389-.812-.591.208-.267.358-.662.63-.784 10.731-4.792 21.456-9.592 31.544-15.682.505-.305 1.15-1.078 1.697-.192.109.177-.579 1.056-1.059 1.356-9.679 6.043-20.165 10.49-30.45 15.334-.454.214-.946.344-1.55.559" transform="matrix(5.55556 0 0 5.55556 221.8860206 57.00391508)"/><path d="m0 4.306c-4.232-.936-8.417-1.859-12.601-2.789-.162-.036-.371-.087-.454-.205-.234-.331-.414-.7-.616-1.054.378-.065.787-.258 1.127-.174 2 .498 3.962 1.166 5.979 1.572 2.143.432 4.336.605 6.496.967.37.062.677.505 1.013.771-.266.258-.533.515-.944.912" transform="matrix(5.55556 0 0 5.55556 196.41933356 141.55398272)"/><path d="m0 5.742c.17-2.745.314-5.492.541-8.232.033-.4.457-.767.699-1.149.199.404.58.814.57 1.214-.088 3.512-.221 7.023-.414 10.531-.023.437-.472.85-.724 1.275-.209-.45-.538-.884-.602-1.353-.101-.748-.027-1.52-.027-2.283-.014-.001-.029-.002-.043-.003" transform="matrix(5.55556 0 0 5.55556 196.15822224 193.44846868)"/><path d="m0 24.969c-.258-.229-.688-.454-.669-.629.033-.306.278-.69.548-.853 2.603-1.575 5.231-3.109 7.851-4.656 9.398-5.549 18.794-11.102 28.197-16.642 1.203-.709 2.421-1.4 3.679-1.998.403-.191.962-.054 1.45-.066-.26.409-.422.987-.794 1.201-4.615 2.668-9.306 5.204-13.886 7.93-7.923 4.718-15.779 9.55-23.673 14.318-.828.501-1.722.893-2.703 1.395" transform="matrix(5.55556 0 0 5.55556 264.65272148 137.20397924)"/></g></g></svg>

<?xml version="1.0" encoding="UTF-8" standalone="no"?>
<!DOCTYPE svg PUBLIC "-//W3C//DTD SVG 1.1//EN" "http://www.w3.org/Graphics/SVG/1.1/DTD/svg11.dtd">
<svg width="100%" height="100%" viewBox="0 0 609 326" version="1.1" xmlns="http://www.w3.org/2000/svg" xmlns:xlink="http://www.w3.org/1999/xlink" xml:space="preserve" xmlns:serif="http://www.serif.com/" style="fill-rule:evenodd;clip-rule:evenodd;stroke-linejoin:round;stroke-miterlimit:2;">
    <g transform="matrix(1,0,0,1,-3991.31,-6842.53)">
        <g transform="matrix(5.55556,0,0,5.55556,3631.89,4783.46)">
            <g transform="matrix(1,0,0,1,81.6914,398.201)">
                <path d="M0,3.17C-0.274,3.255 -0.45,3.273 -0.582,3.357C-4.428,5.817 -8.336,8.189 -12.075,10.803C-13.306,11.665 -14.226,13.073 -15.055,14.379C-16.106,16.037 -15.872,17.364 -14.432,18.699C-13.802,19.283 -13.001,19.805 -12.188,20.044C-8.376,21.161 -4.534,22.171 -0.702,23.215C6.632,25.214 13.831,27.613 21.384,28.929C27.365,29.971 32.64,29.34 37.779,26.27C41.267,24.186 44.916,22.37 48.386,20.261C54.424,16.591 60.555,13.036 66.326,8.977C73.744,3.761 81.194,-1.345 89.359,-5.338C91.762,-6.513 91.879,-9.248 89.626,-10.707C89.098,-11.049 88.519,-11.344 87.924,-11.55C83.967,-12.917 80.006,-14.276 76.03,-15.592C74.602,-16.065 73.131,-16.412 71.668,-16.82C71.187,-13.692 71.28,-13.532 74.078,-12.658C74.562,-12.507 75.06,-12.398 75.543,-12.246C77.116,-11.752 78.712,-11.315 80.247,-10.723C81.274,-10.327 82.088,-9.593 81.896,-8.316C81.856,-8.055 81.508,-7.839 81.302,-7.602C81.076,-7.806 80.84,-8 80.625,-8.214C80.125,-8.71 79.722,-9.421 79.122,-9.677C77.846,-10.223 76.473,-10.544 75.134,-10.938C74.11,-11.239 73.08,-11.512 71.757,-11.879C72.515,-10.261 71.999,-9.633 70.723,-8.806C61.877,-3.078 53.154,2.84 44.362,8.652C42.287,10.025 40.123,11.272 37.955,12.495C36.04,13.575 34.047,14.516 32.114,15.564C28.398,17.579 24.711,19.649 20.979,21.635C20.481,21.9 19.754,21.979 19.198,21.854C13.427,20.551 7.667,19.193 1.908,17.841C0.299,17.463 -0.02,17.063 -0.045,15.378C-0.067,13.917 -0.05,12.455 -0.05,10.707C-2.14,12.005 -4.009,13.074 -5.757,14.314C-6.235,14.654 -6.343,15.512 -6.626,16.13C-6.769,16.441 -6.923,16.746 -7.073,17.053C-7.379,16.821 -7.885,16.633 -7.948,16.347C-8.059,15.846 -8.073,15.174 -7.815,14.774C-7.326,14.014 -6.715,13.251 -5.978,12.748C-4.337,11.628 -2.566,10.7 -0.897,9.619C-0.5,9.362 -0.065,8.825 -0.041,8.394C0.059,6.709 0,5.014 0,3.17M1.181,9.529C1.229,9.533 1.277,9.537 1.325,9.541C1.325,11.234 1.446,12.94 1.289,14.618C1.152,16.073 1.784,16.449 3.056,16.728C8.008,17.814 12.942,18.984 17.862,20.206C19.207,20.54 20.432,20.586 21.651,19.891C25.29,17.819 28.895,15.684 32.583,13.702C37.273,11.182 42.178,9.062 46.302,5.56C48.069,4.059 50.057,2.805 52.007,1.536C57.896,-2.298 63.807,-6.098 69.733,-9.872C70.439,-10.322 70.688,-10.706 70.522,-11.583C70.28,-12.861 70.255,-14.186 70.2,-15.493C70.112,-17.606 70.014,-19.722 70.043,-21.835C70.058,-22.952 69.512,-23.354 68.564,-23.484C66.178,-23.814 63.789,-24.133 61.401,-24.453C58.174,-24.885 54.909,-25.142 51.735,-25.821C50.291,-26.13 49.232,-25.879 48.062,-25.244C45.831,-24.032 43.626,-22.756 41.321,-21.701C34.32,-18.497 27.217,-15.513 20.269,-12.202C14.313,-9.363 8.509,-6.205 2.664,-3.138C2.277,-2.934 1.917,-2.313 1.883,-1.862C1.604,1.932 1.404,5.732 1.181,9.529M27.009,31.006C20.533,30.125 13.39,29.106 6.47,26.833C2.58,25.554 -1.43,24.641 -5.374,23.524C-8.017,22.775 -10.687,22.085 -13.259,21.136C-16.996,19.757 -18.112,16.14 -15.773,12.918C-14.672,11.401 -13.35,9.918 -11.82,8.863C-8.274,6.418 -4.559,4.214 -0.87,1.982C-0.103,1.517 0.396,1.073 0.338,0.132C0.312,-0.285 0.509,-0.724 0.446,-1.128C0.112,-3.284 1.324,-4.13 3.106,-4.994C9.006,-7.853 14.733,-11.073 20.651,-13.892C27.371,-17.093 34.244,-19.969 41.01,-23.073C43.429,-24.183 45.724,-25.563 48.091,-26.789C49.31,-27.421 50.41,-27.954 51.964,-27.195C53.225,-26.579 54.856,-26.724 56.324,-26.531C60.265,-26.011 64.207,-25.503 68.146,-24.969C70.73,-24.619 71.341,-23.869 71.48,-21.254C71.659,-17.891 71.015,-18.56 74.441,-17.465C78.952,-16.023 83.45,-14.541 87.94,-13.036C88.775,-12.755 89.59,-12.352 90.339,-11.886C91.95,-10.881 92.771,-9.363 92.534,-7.483C92.313,-5.731 91.226,-4.61 89.597,-3.806C86.761,-2.406 83.991,-0.859 81.262,0.741C78.38,2.432 75.521,4.174 72.752,6.043C67.666,9.477 62.806,13.267 57.576,16.457C50.427,20.817 43.051,24.814 35.707,28.845C33.26,30.188 30.6,31.124 27.009,31.006" style="fill:rgb(35,31,32);fill-rule:nonzero;"/>
            </g>
        </g>
        <g transform="matrix(5.55556,0,0,5.55556,3631.89,4783.46)">
            <g transform="matrix(1,0,0,1,100.004,379.663)">
                <path d="M0,31.532C0.014,31.533 0.029,31.534 0.043,31.535C0.043,32.298 -0.031,33.07 0.07,33.818C0.134,34.287 0.463,34.721 0.672,35.171C0.924,34.746 1.373,34.333 1.396,33.896C1.589,30.388 1.722,26.877 1.81,23.365C1.82,22.965 1.439,22.555 1.24,22.151C0.998,22.533 0.574,22.9 0.541,23.3C0.314,26.04 0.17,28.787 0,31.532M0.047,20.754C0.458,20.357 0.725,20.1 0.991,19.843C0.655,19.576 0.348,19.134 -0.022,19.072C-2.182,18.709 -4.375,18.536 -6.519,18.104C-8.535,17.699 -10.497,17.03 -12.497,16.532C-12.837,16.448 -13.247,16.641 -13.624,16.706C-13.422,17.06 -13.242,17.429 -13.008,17.761C-12.925,17.878 -12.716,17.929 -12.554,17.965C-8.37,18.895 -4.185,19.819 0.047,20.754M4.631,19.365C5.234,19.15 5.727,19.02 6.181,18.806C16.466,13.962 26.952,9.515 36.631,3.472C37.111,3.172 37.799,2.293 37.689,2.116C37.143,1.23 36.498,2.003 35.993,2.308C25.905,8.398 15.18,13.198 4.449,17.99C4.177,18.112 4.026,18.507 3.819,18.774C4.097,18.976 4.374,19.178 4.631,19.365M-17.132,28.067C-16.909,24.269 -16.709,20.469 -16.43,16.676C-16.396,16.224 -16.036,15.603 -15.649,15.4C-9.804,12.333 -4,9.175 1.956,6.336C8.904,3.025 16.007,0.04 23.008,-3.163C25.313,-4.218 27.518,-5.494 29.749,-6.706C30.919,-7.342 31.978,-7.592 33.422,-7.283C36.596,-6.604 39.861,-6.347 43.088,-5.915C45.476,-5.595 47.865,-5.277 50.251,-4.947C51.199,-4.816 51.745,-4.414 51.73,-3.297C51.701,-1.184 51.799,0.932 51.887,3.045C51.942,4.352 51.967,5.677 52.209,6.954C52.376,7.831 52.126,8.216 51.42,8.665C45.494,12.44 39.583,16.24 33.694,20.074C31.744,21.343 29.756,22.597 27.989,24.097C23.865,27.599 18.96,29.72 14.27,32.24C10.582,34.222 6.977,36.357 3.338,38.429C2.119,39.124 0.894,39.077 -0.451,38.743C-5.371,37.522 -10.305,36.351 -15.257,35.265C-16.529,34.987 -17.161,34.611 -17.024,33.156C-16.867,31.477 -16.988,29.772 -16.988,28.079C-17.036,28.075 -17.084,28.071 -17.132,28.067" style="fill:rgb(255,222,103);fill-rule:nonzero;"/>
            </g>
        </g>
        <g transform="matrix(5.55556,0,0,5.55556,3631.89,4783.46)">
            <g transform="matrix(1,0,0,1,89.1558,372.089)">
                <path d="M0,24.312C0.073,24.367 0.123,24.434 0.163,24.504C0.209,24.518 0.257,24.529 0.303,24.543C0.308,24.54 0.308,24.535 0.312,24.532C4.622,21.343 9.52,19.158 14.382,16.961C20.036,14.408 25.474,11.619 30.838,8.499C37.297,4.741 44.515,2.337 51.917,1.248C49.211,0.921 46.496,0.645 43.842,0.077C42.398,-0.231 41.339,0.019 40.169,0.655C37.938,1.867 35.732,3.143 33.428,4.197C26.427,7.401 19.324,10.385 12.376,13.697C6.726,16.39 0.661,19.838 -4.88,22.756C-3.334,23.19 -1.302,23.321 0,24.312" style="fill:rgb(255,251,200);fill-rule:nonzero;"/>
            </g>
        </g>
        <g transform="matrix(5.55556,0,0,5.55556,3631.89,4783.46)">
            <g transform="matrix(1,0,0,1,151.999,407.065)">
                <path d="M0,-20.447C-0.242,-21.725 -0.267,-23.05 -0.321,-24.357C-0.409,-26.469 -0.509,-28.585 -0.479,-30.698C-0.47,-31.397 -0.68,-31.815 -1.069,-32.063C-5.8,-29.175 -10.433,-26.099 -15.552,-23.949C-15.561,-23.943 -15.57,-23.935 -15.578,-23.929C-25.257,-17.886 -35.743,-13.44 -46.028,-8.595C-46.482,-8.382 -46.975,-8.251 -47.578,-8.036C-47.593,-8.047 -47.61,-8.06 -47.626,-8.071C-48.939,-7.126 -49.866,-5.886 -50.513,-4.453C-50.447,-4.313 -50.396,-4.174 -50.399,-4.036C-50.487,-0.524 -50.62,2.987 -50.813,6.495C-50.836,6.931 -51.285,7.345 -51.537,7.769C-51.575,7.687 -51.62,7.606 -51.664,7.524C-51.559,8.895 -51.426,10.254 -51.301,11.563C-50.467,11.616 -49.667,11.482 -48.871,11.028C-45.232,8.955 -41.627,6.821 -37.939,4.839C-33.249,2.318 -28.344,0.198 -24.22,-3.304C-22.453,-4.804 -20.465,-6.058 -18.515,-7.328C-12.626,-11.162 -6.715,-14.962 -0.788,-18.736C-0.082,-19.186 0.166,-19.57 0,-20.447" style="fill:rgb(233,187,93);fill-rule:nonzero;"/>
            </g>
        </g>
        <g transform="matrix(5.55556,0,0,5.55556,3631.89,4783.46)">
            <g transform="matrix(1,0,0,1,112.333,389.257)">
                <path d="M0,31.041C0.981,30.539 1.875,30.147 2.703,29.646C10.597,24.878 18.453,20.046 26.376,15.328C30.956,12.602 35.647,10.066 40.262,7.398C40.634,7.184 40.796,6.606 41.056,6.197C40.568,6.209 40.009,6.072 39.606,6.263C38.348,6.861 37.13,7.552 35.927,8.261C26.524,13.801 17.128,19.354 7.73,24.903C5.11,26.45 2.482,27.984 -0.121,29.559C-0.391,29.722 -0.636,30.106 -0.669,30.412C-0.688,30.587 -0.258,30.812 0,31.041M-30.642,12.115C-30.642,13.959 -30.583,15.653 -30.682,17.339C-30.707,17.77 -31.142,18.307 -31.539,18.564C-33.208,19.645 -34.979,20.573 -36.62,21.693C-37.356,22.196 -37.967,22.958 -38.457,23.719C-38.714,24.119 -38.701,24.791 -38.59,25.292C-38.526,25.578 -38.021,25.766 -37.714,25.998C-37.565,25.69 -37.41,25.386 -37.268,25.075C-36.984,24.457 -36.876,23.599 -36.398,23.259C-34.651,22.019 -32.781,20.95 -30.691,19.652C-30.691,21.4 -30.709,22.862 -30.687,24.323C-30.661,26.007 -30.342,26.408 -28.734,26.786C-22.974,28.138 -17.215,29.496 -11.443,30.798C-10.888,30.924 -10.161,30.845 -9.662,30.58C-5.931,28.594 -2.244,26.524 1.473,24.509C3.406,23.46 5.398,22.52 7.313,21.439C9.481,20.216 11.645,18.97 13.721,17.597C22.512,11.785 31.235,5.867 40.081,0.139C41.357,-0.688 41.873,-1.316 41.115,-2.935C42.438,-2.567 43.469,-2.294 44.492,-1.993C45.831,-1.599 47.204,-1.278 48.48,-0.732C49.08,-0.476 49.483,0.234 49.983,0.731C50.198,0.945 50.435,1.139 50.66,1.342C50.866,1.105 51.215,0.89 51.254,0.629C51.446,-0.648 50.633,-1.382 49.605,-1.778C48.07,-2.37 46.475,-2.807 44.901,-3.301C44.418,-3.453 43.92,-3.562 43.437,-3.713C40.639,-4.587 40.545,-4.747 41.026,-7.875C42.489,-7.467 43.96,-7.121 45.389,-6.647C49.364,-5.331 53.325,-3.973 57.282,-2.605C57.877,-2.399 58.456,-2.105 58.984,-1.762C61.237,-0.304 61.12,2.432 58.718,3.606C50.553,7.6 43.103,12.706 35.685,17.922C29.913,21.98 23.782,25.536 17.745,29.206C14.274,31.315 10.625,33.13 7.138,35.214C1.999,38.285 -3.277,38.916 -9.258,37.874C-16.811,36.558 -24.009,34.159 -31.344,32.16C-35.176,31.116 -39.018,30.105 -42.829,28.989C-43.643,28.75 -44.444,28.228 -45.073,27.644C-46.513,26.309 -46.748,24.981 -45.696,23.324C-44.868,22.018 -43.947,20.609 -42.716,19.748C-38.978,17.134 -35.07,14.762 -31.224,12.302C-31.091,12.217 -30.916,12.2 -30.642,12.115" style="fill:rgb(160,197,232);fill-rule:nonzero;"/>
            </g>
        </g>
        <g transform="matrix(5.55556,0,0,5.55556,3631.89,4783.46)">
            <g transform="matrix(1,0,0,1,104.635,380.893)">
                <path d="M0,18.135C-0.257,17.948 -0.534,17.746 -0.812,17.544C-0.604,17.277 -0.454,16.882 -0.182,16.76C10.549,11.968 21.274,7.168 31.362,1.078C31.867,0.773 32.512,0 33.059,0.886C33.168,1.063 32.48,1.942 32,2.242C22.321,8.285 11.835,12.732 1.55,17.576C1.096,17.79 0.604,17.92 0,18.135" style="fill:rgb(35,31,32);fill-rule:nonzero;"/>
            </g>
        </g>
        <g transform="matrix(5.55556,0,0,5.55556,3631.89,4783.46)">
            <g transform="matrix(1,0,0,1,100.051,396.112)">
                <path d="M0,4.306C-4.232,3.37 -8.417,2.447 -12.601,1.517C-12.763,1.481 -12.972,1.43 -13.055,1.312C-13.289,0.981 -13.469,0.612 -13.671,0.258C-13.293,0.193 -12.884,0 -12.544,0.084C-10.544,0.582 -8.582,1.25 -6.565,1.656C-4.422,2.088 -2.229,2.261 -0.069,2.623C0.301,2.685 0.608,3.128 0.944,3.394C0.678,3.652 0.411,3.909 0,4.306" style="fill:rgb(35,31,32);fill-rule:nonzero;"/>
            </g>
        </g>
        <g transform="matrix(5.55556,0,0,5.55556,3631.89,4783.46)">
            <g transform="matrix(1,0,0,1,100.004,405.453)">
                <path d="M0,5.742C0.17,2.997 0.314,0.25 0.541,-2.49C0.574,-2.89 0.998,-3.257 1.24,-3.639C1.439,-3.235 1.82,-2.825 1.81,-2.425C1.722,1.087 1.589,4.598 1.396,8.106C1.373,8.543 0.924,8.956 0.672,9.381C0.463,8.931 0.134,8.497 0.07,8.028C-0.031,7.28 0.043,6.508 0.043,5.745C0.029,5.744 0.014,5.743 0,5.742" style="fill:rgb(35,31,32);fill-rule:nonzero;"/>
            </g>
        </g>
        <g transform="matrix(5.55556,0,0,5.55556,3631.89,4783.46)">
            <g transform="matrix(1,0,0,1,112.333,395.329)">
                <path d="M0,24.969C-0.258,24.74 -0.688,24.515 -0.669,24.34C-0.636,24.034 -0.391,23.65 -0.121,23.487C2.482,21.912 5.11,20.378 7.73,18.831C17.128,13.282 26.524,7.729 35.927,2.189C37.13,1.48 38.348,0.789 39.606,0.191C40.009,0 40.568,0.137 41.056,0.125C40.796,0.534 40.634,1.112 40.262,1.326C35.647,3.994 30.956,6.53 26.376,9.256C18.453,13.974 10.597,18.806 2.703,23.574C1.875,24.075 0.981,24.467 0,24.969" style="fill:rgb(35,31,32);fill-rule:nonzero;"/>
            </g>
        </g>
    </g>
</svg>
